package/converter/svg/solid/comment-lines.svg

<svg xmlns="http://www.w3.org/2000/svg" viewBox="0 0 512 512"><!-- Font Awesome Pro 6.0.0-alpha2 by @fontawesome - https://fontawesome.com License - https://fontawesome.com/license (Commercial License) --><path d="M256 32C114.625 32 0 125.125 0 240C0 289.625 21.375 335 57 370.75C44.5 421.125 2.75 466 2.25 466.5C0 468.75 -0.625 472.25 0.75 475.25C2 478.25 4.75 480 8 480C74.25 480 124 448.25 148.625 428.625C181.25 440.875 217.625 448 256 448C397.375 448 512 354.875 512 240S397.375 32 256 32ZM264 320H152C138.75 320 128 309.25 128 296S138.75 272 152 272H264C277.25 272 288 282.75 288 296S277.25 320 264 320ZM360 224H152C138.75 224 128 213.25 128 200S138.75 176 152 176H360C373.25 176 384 186.75 384 200S373.25 224 360 224Z"/></svg>

<svg xmlns="http://www.w3.org/2000/svg" viewBox="0 0 512 512"><!--! Font Awesome Pro 6.6.0 by @fontawesome - https://fontawesome.com License - https://fontawesome.com/license (Commercial License) Copyright 2024 Fonticons, Inc. --><path d="M256 448c141.4 0 256-93.1 256-208S397.4 32 256 32S0 125.1 0 240c0 45.1 17.7 86.8 47.7 120.9c-1.9 24.5-11.4 46.3-21.4 62.9c-5.5 9.2-11.1 16.6-15.2 21.6c-2.1 2.5-3.7 4.4-4.9 5.7c-.6 .6-1 1.1-1.3 1.4l-.3 .3c0 0 0 0 0 0c0 0 0 0 0 0s0 0 0 0s0 0 0 0c-4.6 4.6-5.9 11.4-3.4 17.4c2.5 6 8.3 9.9 14.8 9.9c28.7 0 57.6-8.9 81.6-19.3c22.9-10 42.4-21.9 54.3-30.6c31.8 11.5 67 17.9 104.1 17.9zM152 176l208 0c13.3 0 24 10.7 24 24s-10.7 24-24 24l-208 0c-13.3 0-24-10.7-24-24s10.7-24 24-24zm0 96l112 0c13.3 0 24 10.7 24 24s-10.7 24-24 24l-112 0c-13.3 0-24-10.7-24-24s10.7-24 24-24z"/></svg>
